Assets/pieces/Intellector_Black.svg

<svg xmlns="http://www.w3.org/2000/svg" viewBox="0 0 75.29 119.13"><defs><style>.cls-1{fill:#fff;stroke:#000;}</style></defs><title>Intellector_Black</title><g id="Слой_2" data-name="Слой 2"><g id="Слой_1-2" data-name="Слой 1"><path d="M7.67,34L13.280000000000001,35.54C16.380000000000003,30.89,19.28,26.15,22.55,21.77C26.21,16.93,29.55,12.07,30.810000000000002,5.949999999999999C31.62,1.9499999999999993,35.64,-0.23000000000000043,39.690000000000005,0.8099999999999996C43.57000000000001,1.8099999999999996,44.82000000000001,4.64,44.900000000000006,9.370000000000001C46.370000000000005,12.15,47.900000000000006,14.91,49.31,17.69A9.3,9.3,0,0,0,50.050000000000004,19.450000000000003C54.050000000000004,24.28,58.050000000000004,29.07,62.53,34.45C67.42,33.45,67.4,34.11,67.25,40.45C67.08,47.45,62.05,50.74,58.58,55.39C57.58,56.77,56.79,59.3,57.339999999999996,60.75C61.19,70.75,65.50999999999999,80.6,69.50999999999999,90.57A147.66,147.66,0,0,1,74.72999999999999,105.57C75.07,106.77999999999999,73.99,109.17999999999999,72.85999999999999,109.88C64.52999999999999,115.05,56.219999999999985,119.88,45.54999999999998,118.47C38.54999999999998,117.56,31.23999999999998,118.14,24.10999999999998,118.53C15.109999999999982,119.01,8.639999999999981,113.18,1.3599999999999817,109.53C0.35999999999998167,109.05,0.23999999999998156,105.26,0.9199999999999817,103.46000000000001Q8.749999999999982,82.84,17.15999999999998,62.46000000000001C18.79999999999998,58.46000000000001,18.68999999999998,55.720000000000006,15.159999999999979,52.91000000000001C9.2,48.1,7.37,43.26,7.67,34ZM31.19,15.69L31.34,15.58L31.04,15.76S31.17,15.72,31.19,15.69ZM53.63,114.27C53.39,111.89,53.370000000000005,110.08,53.02,108.33C50.160000000000004,93.8,47.160000000000004,79.33,44.400000000000006,64.75C43.81,61.65,42.400000000000006,60.3,39.400000000000006,60.69S32.32000000000001,58.86,31.300000000000004,64.53999999999999C29.490000000000006,74.53999999999999,27.050000000000004,84.38,24.950000000000003,94.30999999999999C23.590000000000003,100.75999999999999,22.360000000000003,107.23999999999998,20.950000000000003,114.30999999999999ZM55.63,42.269999999999996C55.92,41.489999999999995,57.03,39.79,57.13,38.029999999999994C57.660000000000004,28.389999999999993,49.24,20.249999999999993,39.64,20.829999999999995A30.33,30.33,0,0,1,35.17,20.749999999999996C26.17,19.959999999999997,16.630000000000003,30.15,18.17,39.099999999999994A9.36,9.36,0,0,0,19.8,42.309999999999995A110.64,110.64,0,0,1,55.62,42.28ZM17.5,114.38C21.35,96.24,25,78.94,28.78,61.26L21.580000000000002,59.8L3.09,106.65ZM46.91,61.779999999999994C50.349999999999994,79.06,53.779999999999994,96.3,57.36,114.24C61.54,112.11,64.73,110.39999999999999,67.99,108.83C70.91,107.42,71.57,105.67999999999999,70.25,102.48C65.12,90.09,60.11,77.64,55.45,65.06C53.91,60.9,52.09,59.22,46.91,61.78ZM13.439999999999998,41.779999999999994L11.919999999999998,42.589999999999996C12.869999999999997,44.48,13.459999999999997,46.73,14.859999999999998,48.199999999999996A86.25,86.25,0,0,0,23.479999999999997,55.74999999999999C26.33,58.03999999999999,48.67,58.25999999999999,51.64,56.15999999999999A7.89,7.89,0,0,0,52.4,55.50999999999999A109.47,109.47,0,0,0,60.47,48.08999999999999C61.85,46.57999999999999,62.47,44.37999999999999,63.97,41.39999999999999C56.34,43.28,54,51,46.7,51.86L48.28,44.54H26.7L27.869999999999997,51.44L26.669999999999998,52.58ZM39.73,17.36L39.73,17.009999999999998H35.37L35.419999999999995,17.36Z" fill="#fff" stroke="#000" /><path d="M53.63,114.27H20.92C22.32,107.27,23.55,100.75999999999999,24.92,94.27C27.020000000000003,84.34,29.46,74.47999999999999,31.270000000000003,64.5C32.27,58.82,36.27,61.05,39.370000000000005,60.65S43.82000000000001,61.65,44.370000000000005,64.71C47.16,79.3,50.16,93.8,53,108.33C53.37,110.08,53.39,111.89,53.63,114.27Z"/><path d="M55.62,42.28A110.64,110.64,0,0,0,19.799999999999997,42.28A9.36,9.36,0,0,1,18.169999999999998,39.07C16.619999999999997,30.12,26.169999999999998,19.93,35.17,20.72A30.33,30.33,0,0,0,39.64,20.799999999999997C49.24,20.22,57.64,28.359999999999996,57.129999999999995,38C57,39.8,55.91,41.5,55.62,42.28Z"/><path d="M17.5,114.38L3.09,106.65L21.58,59.8L28.779999999999998,61.26C25,78.94,21.35,96.24,17.5,114.38Z"/><path d="M46.91,61.78C52.089999999999996,59.22,53.91,60.9,55.449999999999996,65.06C60.11,77.64,65.11999999999999,90.06,70.25,102.48C71.57,105.68,70.91,107.42,67.99,108.83C64.72999999999999,110.39999999999999,61.53999999999999,112.11,57.35999999999999,114.24C53.78,96.3,50.35,79.06,46.91,61.78Z"/><path d="M13.44,41.74L26.67,52.58L27.87,51.44L26.700000000000003,44.54H48.28L46.7,51.86C54,51,56.34,43.28,64,41.36C62.49,44.36,61.88,46.54,60.5,48.05A109.47,109.47,0,0,1,52.43,55.47A7.89,7.89,0,0,1,51.67,56.12C48.67,58.22,26.360000000000003,58,23.51,55.71A86.25,86.25,0,0,1,14.890000000000002,48.160000000000004C13.490000000000002,46.690000000000005,12.890000000000002,44.440000000000005,11.950000000000003,42.550000000000004Z"/><path d="M39.73,17.36H35.42L35.37,17H39.709999999999994Z"/><path d="M31.17,15.72L31.040000000000003,15.72Z"/><path d="M31,15.76L31.3,15.58A1.53,1.53,0,0,0,31.14,15.71Z"/></g><g id="Слой_2-2" data-name="Слой 2"><circle cx="37.64" cy="7.28" r="3.23"/></g><g id="Слой_3" data-name="Слой 3"><path d="M45.53,15.65C45.53,16.79,41.99,17.72,37.63,17.72S28.630000000000003,15.959999999999999,29.720000000000002,15.649999999999999C32.72,14.769999999999998,32.92,16.41,37.28,16.41S45.53,14.5,45.53,15.65Z"/></g></g></svg>

<svg xmlns="http://www.w3.org/2000/svg" viewBox="0 0 75.29 119.13"><defs><style>.cls-1{fill:#fff;stroke:#000;}</style></defs><title>Intellector_Black</title><g id="Слой_2" data-name="Слой 2"><g id="Слой_1-2" data-name="Слой 1"><path class="cls-1" d="M7.67,34l5.61,1.54c3.1-4.65,6-9.39,9.27-13.77,3.66-4.84,7-9.7,8.26-15.82.81-4,4.83-6.18,8.88-5.14,3.88,1,5.13,3.83,5.21,8.56,1.47,2.78,3,5.54,4.41,8.32a9.3,9.3,0,0,0,.74,1.76c4,4.83,8,9.62,12.48,15,4.89-1,4.87-.34,4.72,6-.17,7-5.2,10.29-8.67,14.94-1,1.38-1.79,3.91-1.24,5.36,3.85,10,8.17,19.85,12.17,29.82a147.66,147.66,0,0,1,5.22,15c.34,1.21-.74,3.61-1.87,4.31-8.33,5.17-16.64,10-27.31,8.59-7-.91-14.31-.33-21.44.06-9,.48-15.47-5.35-22.75-9-1-.48-1.12-4.27-.44-6.07q7.83-20.62,16.24-41c1.64-4,1.53-6.74-2-9.55C9.2,48.1,7.37,43.26,7.67,34ZM31.19,15.69l.15-.11-.3.18S31.17,15.72,31.19,15.69Zm22.44,98.58c-.24-2.38-.26-4.19-.61-5.94-2.86-14.53-5.86-29-8.62-43.58-.59-3.1-2-4.45-5-4.06s-7.08-1.83-8.1,3.85c-1.81,10-4.25,19.84-6.35,29.77-1.36,6.45-2.59,12.93-4,20Zm2-72c.29-.78,1.4-2.48,1.5-4.24.53-9.64-7.89-17.78-17.49-17.2a30.33,30.33,0,0,1-4.47-.08c-9-.79-18.54,9.4-17,18.35a9.36,9.36,0,0,0,1.63,3.21A110.64,110.64,0,0,1,55.62,42.28ZM17.5,114.38C21.35,96.24,25,78.94,28.78,61.26l-7.2-1.46L3.09,106.65Zm29.41-52.6c3.44,17.28,6.87,34.52,10.45,52.46,4.18-2.13,7.37-3.84,10.63-5.41,2.92-1.41,3.58-3.15,2.26-6.35-5.13-12.39-10.14-24.84-14.8-37.42C53.91,60.9,52.09,59.22,46.91,61.78Zm-33.47-20-1.52.81c.95,1.89,1.54,4.14,2.94,5.61a86.25,86.25,0,0,0,8.62,7.55c2.85,2.29,25.19,2.51,28.16.41a7.89,7.89,0,0,0,.76-.65,109.47,109.47,0,0,0,8.07-7.42c1.38-1.51,2-3.71,3.5-6.69C56.34,43.28,54,51,46.7,51.86l1.58-7.32H26.7l1.17,6.9-1.2,1.14ZM39.73,17.36l0-.35H35.37l.05.35Z"/><path d="M53.63,114.27H20.92c1.4-7,2.63-13.51,4-20,2.1-9.93,4.54-19.79,6.35-29.77,1-5.68,5-3.45,8.1-3.85s4.45,1,5,4.06C47.16,79.3,50.16,93.8,53,108.33,53.37,110.08,53.39,111.89,53.63,114.27Z"/><path d="M55.62,42.28a110.64,110.64,0,0,0-35.82,0,9.36,9.36,0,0,1-1.63-3.21c-1.55-8.95,8-19.14,17-18.35a30.33,30.33,0,0,0,4.47.08c9.6-.58,18,7.56,17.49,17.2C57,39.8,55.91,41.5,55.62,42.28Z"/><path d="M17.5,114.38,3.09,106.65,21.58,59.8l7.2,1.46C25,78.94,21.35,96.24,17.5,114.38Z"/><path d="M46.91,61.78c5.18-2.56,7-.88,8.54,3.28,4.66,12.58,9.67,25,14.8,37.42,1.32,3.2.66,4.94-2.26,6.35-3.26,1.57-6.45,3.28-10.63,5.41C53.78,96.3,50.35,79.06,46.91,61.78Z"/><path d="M13.44,41.74,26.67,52.58l1.2-1.14-1.17-6.9H48.28L46.7,51.86C54,51,56.34,43.28,64,41.36c-1.51,3-2.12,5.18-3.5,6.69a109.47,109.47,0,0,1-8.07,7.42,7.89,7.89,0,0,1-.76.65c-3,2.1-25.31,1.88-28.16-.41a86.25,86.25,0,0,1-8.62-7.55c-1.4-1.47-2-3.72-2.94-5.61Z"/><path d="M39.73,17.36H35.42L35.37,17h4.34Z"/><path d="M31.17,15.72l-.13,0Z"/><path d="M31,15.76l.3-.18a1.53,1.53,0,0,0-.16.13Z"/></g><g id="Слой_2-2" data-name="Слой 2"><circle cx="37.64" cy="7.28" r="3.23"/></g><g id="Слой_3" data-name="Слой 3"><path d="M45.53,15.65c0,1.14-3.54,2.07-7.9,2.07s-9-1.76-7.91-2.07c3-.88,3.2.76,7.56.76S45.53,14.5,45.53,15.65Z"/></g></g></svg>
